rospo-dark/16x16/actions/im-facebook.svg

<svg height="16" viewBox="0 0 16 16" width="16" xmlns="http://www.w3.org/2000/svg"><path d="m9 2c-.9168.001-1.8101687.29295-2.3554688.96875-.5452.6757-.6990781 1.5035906-.7675781 2.4628906-.0338.4727-.0436625.9944594-.0390625 1.5683594h-.8378906c-.554 0-1 .446-1 1s .446 1 1 1h .8886719c.0477 1.398.1113281 3.043.1113281 5a1.0001 1.0001 0 1 0 2 0c0-1.962-.0562625-3.619-.1015625-5h1.1015625c.554 0 1-.446 1-1s-.446-1-1-1h-1.1542969c-.0068-.5528-.0010562-1.0279812.0273438-1.4257812.0565-.7906001.217025-1.2120094.328125-1.3496094.111-.1376.2173812-.2239094.8007812-.2246094a1.0001 1.0001 0 1 0 -.0019531-2z" fill="#d3dae3"/></svg>

<?xml version="1.0" encoding="UTF-8" standalone="no"?>
<svg xmlns="http://www.w3.org/2000/svg" width="22" height="22" viewBox="0 0 22 22">
 <defs>
  <style type="text/css" id="current-color-scheme">
   .ColorScheme-Text { color:#d3dae3; } .ColorScheme-Highlight { color:#5294e2; }
  </style>
 </defs>
 <path style="fill:currentColor;opacity:1" class="ColorScheme-Text" transform="translate(3 3)" d="M 9 2 C 8.0832 2.001 7.1898313 2.29295 6.6445312 2.96875 C 6.0993312 3.64445 5.9454531 4.4723406 5.8769531 5.4316406 C 5.8431531 5.9043406 5.8332906 6.4261 5.8378906 7 L 5 7 C 4.446 7 4 7.446 4 8 C 4 8.554 4.446 9 5 9 L 5.8886719 9 C 5.9363719 10.398 6 12.043 6 14 A 1.0001 1.0001 0 1 0 8 14 C 8 12.038 7.9437375 10.381 7.8984375 9 L 9 9 C 9.554 9 10 8.554 10 8 C 10 7.446 9.554 7 9 7 L 7.8457031 7 C 7.8389031 6.4472 7.8446469 5.9720188 7.8730469 5.5742188 C 7.9295469 4.7836187 8.0900719 4.3622094 8.2011719 4.2246094 C 8.3121719 4.0870094 8.4185531 4.0007 9.0019531 4 A 1.0001 1.0001 0 1 0 9 2 z"/>
</svg>
